X:1406
L:1/8
M:2/2
K:F
"D7" D>D ^F>F E>E F>F | D>D ^F>F E3 D |"G7" G2 =B2 A2 BB | G2 =B2 A3 G |"C7" c2 e2 d3 c | 
 c2 e2 d3 c |"F" f2 d2 c2 AG |1 FE F2"A7" A4 :|2"C" CD E2"F" F4 |:"D7" d2 ^c2 =c2 A2 | 
 d2 ^c2 =c3 A |"G7" A2 ^G2 =G2 D2 | A2 ^G2 =G2 AG |"C7" c2 AA c2 AA | c2 Ac- c3 c | 
"F" f2 d2 c2 AG |1 FE FA-"A7" A4 :|2"C" CD E2"F" F4 |]

